X: 1
T:Humours of Westport, The
R:reel
Z:id:hn-reel-498
M:C|
K:F
~f3e fcAc|~f3d egge|~f3e fcAc|BAGA Bcde|
~f3e fcAc|~f3d eg~g2|afge fdcA|BAGA BdcB||
(3AGF cF dFcF|(3AGF cA BdcB|(3AGF cF dFcA|BAGA BdcB|
(3AGF cF dFcF|(3AGF cA BdcB|Acfa gecA|BAGA Bcde||
